_inc/images/help-favorite-arcade.svg

<?xml version="1.0" encoding="UTF-8" standalone="no"?>
<svg
   viewBox="0 0 102 19"
   version="1.1"
   id="svg16"
   sodipodi:docname="help-favorite-arcade.svg"
   inkscape:version="1.2 (dc2aedaf03, 2022-05-15)"
   xmlns:inkscape="http://www.inkscape.org/namespaces/inkscape"
   xmlns:sodipodi="http://sodipodi.sourceforge.net/DTD/sodipodi-0.dtd"
   xmlns="http://www.w3.org/2000/svg"
   xmlns:svg="http://www.w3.org/2000/svg"
   xmlns:bx="https://boxy-svg.com">
  <defs
     id="defs20" />
  <sodipodi:namedview
     id="namedview18"
     pagecolor="#505050"
     bordercolor="#ffffff"
     borderopacity="1"
     inkscape:showpageshadow="0"
     inkscape:pageopacity="0"
     inkscape:pagecheckerboard="1"
     inkscape:deskcolor="#505050"
     showgrid="false"
     inkscape:zoom="12.421053"
     inkscape:cx="50.961864"
     inkscape:cy="9.5402542"
     inkscape:window-width="1920"
     inkscape:window-height="1017"
     inkscape:window-x="-8"
     inkscape:window-y="-8"
     inkscape:window-maximized="1"
     inkscape:current-layer="svg16" />
  <ellipse
     style="paint-order:stroke;stroke:#ffffff;fill:none"
     transform="matrix(1, 0, -0.000001, 1, 3.399009, 1.177)"
     cx="6.101"
     cy="5.323"
     rx="2.5"
     ry="2.5"
     bx:origin="0.5 2.208"
     id="ellipse2" />
  <ellipse
     style="stroke:#ffffff;fill-rule:evenodd;fill:none"
     transform="matrix(1, 0, -0.000001, 1, -3.100825, 1.177)"
     cx="6.101"
     cy="5.323"
     rx="2.5"
     ry="2.5"
     bx:origin="0.5 2.208"
     id="ellipse4" />
  <ellipse
     style="stroke:#ffffff;fill:none"
     transform="matrix(1, 0, -0.000002, 1, 9.899018, 1.177)"
     cx="6.101"
     cy="5.323"
     rx="2.5"
     ry="2.5"
     bx:origin="0.5 2.208"
     id="ellipse6" />
  <path
     d="M 24 15.85 L 24 3.25 L 31.75 3.25 L 31.75 5.48 L 26.3 5.48 L 26.3 8.16 L 30.51 8.16 L 30.51 10.4 L 26.3 10.4 L 26.3 15.85 L 24 15.85 Z M 40.066 15.85 L 39.026 12.86 L 34.436 12.86 L 33.396 15.85 L 31.156 15.85 L 35.646 3.25 L 37.816 3.25 L 42.306 15.85 L 40.066 15.85 Z M 35.156 10.85 L 38.306 10.85 L 36.736 6.35 L 35.156 10.85 Z M 50.384 3.25 L 52.704 3.25 L 48.224 15.85 L 46.044 15.85 L 41.564 3.25 L 43.884 3.25 L 47.124 12.52 L 50.384 3.25 Z M 59.348 16.1 L 59.348 16.1 C 58.161 16.1 57.098 15.827 56.158 15.28 L 56.158 15.28 L 56.158 15.28 C 55.211 14.733 54.471 13.967 53.938 12.98 L 53.938 12.98 L 53.938 12.98 C 53.404 11.987 53.138 10.843 53.138 9.55 L 53.138 9.55 L 53.138 9.55 C 53.138 8.257 53.404 7.113 53.938 6.12 L 53.938 6.12 L 53.938 6.12 C 54.471 5.133 55.211 4.367 56.158 3.82 L 56.158 3.82 L 56.158 3.82 C 57.098 3.273 58.161 3 59.348 3 L 59.348 3 L 59.348 3 C 60.534 3 61.601 3.273 62.548 3.82 L 62.548 3.82 L 62.548 3.82 C 63.488 4.367 64.224 5.133 64.758 6.12 L 64.758 6.12 L 64.758 6.12 C 65.291 7.113 65.558 8.257 65.558 9.55 L 65.558 9.55 L 65.558 9.55 C 65.558 10.843 65.291 11.987 64.758 12.98 L 64.758 12.98 L 64.758 12.98 C 64.224 13.967 63.488 14.733 62.548 15.28 L 62.548 15.28 L 62.548 15.28 C 61.601 15.827 60.534 16.1 59.348 16.1 L 59.348 16.1 Z M 59.348 13.87 L 59.348 13.87 C 60.574 13.87 61.514 13.473 62.168 12.68 L 62.168 12.68 L 62.168 12.68 C 62.821 11.887 63.148 10.843 63.148 9.55 L 63.148 9.55 L 63.148 9.55 C 63.148 8.257 62.821 7.213 62.168 6.42 L 62.168 6.42 L 62.168 6.42 C 61.514 5.627 60.574 5.23 59.348 5.23 L 59.348 5.23 L 59.348 5.23 C 58.121 5.23 57.181 5.627 56.528 6.42 L 56.528 6.42 L 56.528 6.42 C 55.874 7.213 55.548 8.257 55.548 9.55 L 55.548 9.55 L 55.548 9.55 C 55.548 10.843 55.874 11.887 56.528 12.68 L 56.528 12.68 L 56.528 12.68 C 57.181 13.473 58.121 13.87 59.348 13.87 L 59.348 13.87 Z M 67.577 15.85 L 67.577 3.25 L 72.177 3.25 L 72.177 3.25 C 73.524 3.25 74.584 3.57 75.357 4.21 L 75.357 4.21 L 75.357 4.21 C 76.131 4.857 76.517 5.81 76.517 7.07 L 76.517 7.07 L 76.517 7.07 C 76.517 7.943 76.331 8.66 75.957 9.22 L 75.957 9.22 L 75.957 9.22 C 75.591 9.773 75.064 10.22 74.377 10.56 L 74.377 10.56 L 77.217 15.85 L 74.647 15.85 L 72.217 11.17 L 69.877 11.17 L 69.877 15.85 L 67.577 15.85 Z M 69.877 9.24 L 71.567 9.24 L 71.567 9.24 C 73.261 9.24 74.107 8.557 74.107 7.19 L 74.107 7.19 L 74.107 7.19 C 74.107 6.53 73.914 6.03 73.527 5.69 L 73.527 5.69 L 73.527 5.69 C 73.147 5.35 72.524 5.18 71.657 5.18 L 71.657 5.18 L 69.877 5.18 L 69.877 9.24 Z M 78.845 15.85 L 78.845 3.25 L 81.145 3.25 L 81.145 15.85 L 78.845 15.85 Z M 86.361 15.85 L 86.361 5.48 L 82.801 5.48 L 82.801 3.25 L 92.231 3.25 L 92.231 5.48 L 88.671 5.48 L 88.671 15.85 L 86.361 15.85 Z M 93.893 15.85 L 93.893 3.25 L 101.953 3.25 L 101.953 5.48 L 96.243 5.48 L 96.243 8.16 L 100.673 8.16 L 100.673 10.4 L 96.243 10.4 L 96.243 13.62 L 102.133 13.62 L 102.133 15.85 L 93.893 15.85 Z"
     style="fill:#ffffff;white-space:pre"
     id="path8" />
  <ellipse
     style="paint-order:stroke;stroke:#ffffff;fill:#ffffff"
     transform="matrix(1, 0, -0.000001, 1, 3.399006, 7.677333)"
     cx="6.101"
     cy="5.323"
     rx="2.5"
     ry="2.5"
     bx:origin="0.5 2.208"
     id="ellipse10" />
  <ellipse
     style="stroke:#ffffff;fill-rule:evenodd;fill:none"
     transform="matrix(1, 0, -0.000001, 1, -3.100825, 7.677333)"
     cx="6.101"
     cy="5.323"
     rx="2.5"
     ry="2.5"
     bx:origin="0.5 2.208"
     id="ellipse12" />
  <ellipse
     style="stroke:#ffffff;fill:none"
     transform="matrix(1, 0, -0.000002, 1, 9.899031, 7.677333)"
     cx="6.101"
     cy="5.323"
     rx="2.5"
     ry="2.5"
     bx:origin="0.5 2.208"
     id="ellipse14" />
</svg>

<svg xmlns="http://www.w3.org/2000/svg" viewBox="0 0 102 19"><circle cx="6.101" cy="5.323" r="2.5" style="paint-order:stroke;stroke:#fff;fill:none" transform="translate(3.399 1.177)"/><circle cx="6.101" cy="5.323" r="2.5" style="stroke:#fff;fill-rule:evenodd;fill:none" transform="translate(-3.1 1.177)"/><circle cx="6.101" cy="5.323" r="2.5" style="stroke:#fff;fill:none" transform="translate(9.899 1.177)"/><path d="M24 15.85V3.25h7.75v2.23H26.3v2.68h4.21v2.24H26.3v5.45zm16.066 0-1.04-2.99h-4.59l-1.04 2.99h-2.24l4.49-12.6h2.17l4.49 12.6zm-4.91-5h3.15l-1.57-4.5zm15.228-7.6h2.32l-4.48 12.6h-2.18l-4.48-12.6h2.32l3.24 9.27zm8.964 12.85q-1.78 0-3.19-.82a5.76 5.76 0 0 1-2.22-2.3q-.8-1.49-.8-3.43t.8-3.43a5.76 5.76 0 0 1 2.22-2.3q1.41-.82 3.19-.82t3.2.82a5.8 5.8 0 0 1 2.21 2.3q.8 1.49.8 3.43t-.8 3.43a5.8 5.8 0 0 1-2.21 2.3q-1.42.82-3.2.82m0-2.23q1.839 0 2.82-1.19t.98-3.13-.98-3.13q-.981-1.19-2.82-1.19-1.84 0-2.82 1.19t-.98 3.13.98 3.13 2.82 1.19m8.229 1.98V3.25h4.6q2.02 0 3.18.96 1.16.97 1.16 2.86 0 1.31-.56 2.15-.55.83-1.58 1.34l2.84 5.29h-2.57l-2.43-4.68h-2.34v4.68zm2.3-6.61h1.69q2.54 0 2.54-2.05 0-.99-.58-1.5-.57-.51-1.87-.51h-1.78zm8.968 6.61V3.25h2.3v12.6zm7.516 0V5.48h-3.56V3.25h9.43v2.23h-3.56v10.37zm7.532 0V3.25h8.06v2.23h-5.71v2.68h4.43v2.24h-4.43v3.22h5.89v2.23z" style="fill:#fff;white-space:pre"/><circle cx="6.101" cy="5.323" r="2.5" style="paint-order:stroke;stroke:#fff;fill:#fff" transform="translate(3.399 7.677)"/><circle cx="6.101" cy="5.323" r="2.5" style="stroke:#fff;fill-rule:evenodd;fill:none" transform="translate(-3.1 7.677)"/><circle cx="6.101" cy="5.323" r="2.5" style="stroke:#fff;fill:none" transform="translate(9.899 7.677)"/></svg>
